X:1
T:Engelska från Björkekärr
R:Engelska
S:Efter Albert Andersson
O:
Z: LL
M:2/4
L:1/16
K:A
a2ec (ea)ec|e2ag (fe)dc|B2ga (ge)fg|(ag)fe (ed)ce|
a2ec (ea)ec|e2ag (fe)dc|B2ga (ge)fg|a2ab a4:|
|:B3A c2cA|d2ed c2c2|c2B2 =G3B|B2A2 A4|
B2BA c2cA|d2ed c2dc|B2ga (ge)(fg)|a>b(ag) a4:|

